assets/icons/utility/reminder.svg

<svg xmlns="http://www.w3.org/2000/svg" width="52" height="52" viewBox="0 0 52 52"><path d="M50.3,7.5a7.45,7.45,0,0,0-6.2-5.9,7.81,7.81,0,0,0-5.8,1.6.81.81,0,0,0,.2,1.4,28.48,28.48,0,0,1,9.4,8.2.84.84,0,0,0,1.4,0A6.87,6.87,0,0,0,50.3,7.5ZM13.5,4.7a.9.9,0,0,0,.2-1.4A7,7,0,0,0,7.9,1.7,7.23,7.23,0,0,0,1.7,7.5a7.36,7.36,0,0,0,1.1,5.3.84.84,0,0,0,1.4,0A26,26,0,0,1,13.5,4.7ZM26,6.5a22.06,22.06,0,0,0-22,22,21.58,21.58,0,0,0,4.3,13L5,44.8a3.2,3.2,0,0,0,0,4.6,3.15,3.15,0,0,0,4.6,0l3.3-3.3A22.1,22.1,0,0,0,26,50.4a21.58,21.58,0,0,0,13-4.3l3.3,3.3a3.25,3.25,0,0,0,2.4,1A3.3,3.3,0,0,0,47,44.8l-3.3-3.3a21.58,21.58,0,0,0,4.3-13A21.94,21.94,0,0,0,26,6.5ZM10.5,28.4A15.5,15.5,0,1,1,26,43.9,15.49,15.49,0,0,1,10.5,28.4Zm18-.9V21.1a2.37,2.37,0,0,0-2.4-2.4,2.43,2.43,0,0,0-2.4,2.4v7.3a2.06,2.06,0,0,0,.7,1.7l5.7,5.7a2.41,2.41,0,0,0,3.4,0,2.3,2.3,0,0,0,0-3.4Z" fill="#fff"/></svg>

<?xml version="1.0"?><svg xmlns="http://www.w3.org/2000/svg" width="52" height="52" viewBox="0 0 52 52"><path d="m64.7 19.1v0.4-0.4z"></path><path fill="#fff" d="m50.3 7.5c-0.6-3-3.1-5.5-6.2-5.9-2.2-0.3-4.2 0.4-5.8 1.6-0.5 0.4-0.4 1.1 0.2 1.4 3.7 2 6.9 4.8 9.4 8.2 0.3 0.5 1.1 0.5 1.4 0 1-1.5 1.4-3.3 1-5.3z m-36.8-2.8c0.5-0.2 0.6-1 0.2-1.4-1.5-1.3-3.6-2-5.8-1.6-3.1 0.4-5.7 2.8-6.2 5.8-0.3 2 0.1 3.8 1.1 5.3 0.3 0.5 1.1 0.5 1.4 0 2.4-3.3 5.5-6.2 9.3-8.1z m12.5 1.8c-12.1 0-22 9.9-22 22 0 4.9 1.6 9.4 4.3 13l-3.3 3.3c-1.3 1.3-1.3 3.3 0 4.6 0.7 0.7 1.5 1 2.3 1 0.8 0 1.6-0.3 2.3-1l3.3-3.3c3.7 2.7 8.2 4.3 13.1 4.3s9.4-1.6 13-4.3l3.3 3.3c0.7 0.7 1.5 1 2.4 1 0.8 0 1.6-0.3 2.3-1 1.3-1.3 1.3-3.3 0-4.6l-3.3-3.3c2.7-3.6 4.3-8.1 4.3-13 0-12.2-9.8-22-22-22z m-15.5 21.9c0-8.5 7-15.4 15.5-15.4s15.5 6.9 15.5 15.5-6.9 15.4-15.5 15.4-15.5-6.9-15.5-15.5z m18-0.9v-6.4c0-1.4-1.1-2.4-2.4-2.4s-2.4 1.1-2.4 2.4v7.3c0 0.7 0.2 1.3 0.7 1.7l5.7 5.7c0.5 0.5 1.1 0.7 1.7 0.7 0.6 0 1.2-0.2 1.7-0.7 1-1 1-2.5 0-3.4l-5-4.9z"></path></svg>
